src/lib/packages/icons/src/assets/filled/repeat.svg

<svg width="24" height="24" viewBox="0 0 24 24" fill="none" xmlns="http://www.w3.org/2000/svg">
<path d="M4 12.5C4 13.215 4.16494 13.9041 4.49194 14.5481C4.74094 15.0411 4.544 15.6421 4.052 15.8921C3.906 15.9651 3.75195 16 3.60095 16C3.23595 16 2.88401 15.7999 2.70801 15.4519C2.24501 14.5379 2 13.517 2 12.5C2 8.67304 4.673 6.00004 8.5 6.00004H14.5861L14.293 5.70707C13.902 5.31607 13.902 4.68401 14.293 4.29301C14.684 3.90201 15.316 3.90201 15.707 4.29301L17.7061 6.29203C17.7991 6.38503 17.872 6.49496 17.923 6.61796C18.024 6.86196 18.024 7.13812 17.923 7.38212C17.872 7.50512 17.7991 7.61505 17.7061 7.70805L15.707 9.70707C15.512 9.90207 15.256 10 15 10C14.744 10 14.488 9.90207 14.293 9.70707C13.902 9.31607 13.902 8.68401 14.293 8.29301L14.5861 8.00004H8.5C5.767 8.00004 4 9.76704 4 12.5ZM21.292 9.54813C21.043 9.05513 20.444 8.85695 19.948 9.10795C19.456 9.35795 19.2591 9.95894 19.5081 10.4519C19.8351 11.0969 20 11.785 20 12.5C20 15.233 18.233 17 15.5 17H9.41394L9.70703 16.7071C10.098 16.3161 10.098 15.684 9.70703 15.293C9.31603 14.902 8.68397 14.902 8.29297 15.293L6.29297 17.293C5.90197 17.684 5.90197 18.3161 6.29297 18.7071L8.29297 20.7071C8.48797 20.9021 8.744 21 9 21C9.256 21 9.51203 20.9021 9.70703 20.7071C10.098 20.3161 10.098 19.684 9.70703 19.293L9.41394 19H15.5C19.327 19 22 16.327 22 12.5C22 11.483 21.755 10.4621 21.292 9.54813Z" fill="currentColor"/>
</svg>

<svg xmlns="http://www.w3.org/2000/svg" width="24" height="24" fill="none"><path fill="currentColor" d="M4 12.5c0 .715.165 1.404.492 2.048a1.001 1.001 0 0 1-1.784.904A6.566 6.566 0 0 1 2 12.5C2 8.673 4.673 6 8.5 6h6.086l-.293-.293a.999.999 0 1 1 1.414-1.414l2 1.999a1 1 0 0 1 0 1.416l-2 2a.997.997 0 0 1-1.414 0 .999.999 0 0 1 0-1.415L14.586 8H8.5C5.767 8 4 9.767 4 12.5Zm17.292-2.952a1.001 1.001 0 0 0-1.784.904c.327.645.492 1.333.492 2.048 0 2.733-1.767 4.5-4.5 4.5H9.414l.293-.293a1 1 0 1 0-1.414-1.414l-2 2a.999.999 0 0 0 0 1.414l2 2a.997.997 0 0 0 1.414 0 1 1 0 0 0 0-1.414L9.414 19H15.5c3.827 0 6.5-2.673 6.5-6.5a6.566 6.566 0 0 0-.708-2.952Z"/></svg>
